src/lib/packages/icons/src/assets/filled/face-meh-blank.svg

<svg xmlns="http://www.w3.org/2000/svg" width="24" height="24" fill="none"><path fill="currentColor" d="M12 2C6.48 2 2 6.48 2 12s4.48 10 10 10 10-4.48 10-10S17.52 2 12 2Zm-3.02 9.75c-.72 0-1.25-.74-1.25-1.75s.53-1.75 1.25-1.75 1.25.74 1.25 1.75-.53 1.75-1.25 1.75Zm6 0c-.72 0-1.25-.74-1.25-1.75s.53-1.75 1.25-1.75 1.25.74 1.25 1.75-.53 1.75-1.25 1.75Z"/></svg>

<svg width="24" height="24" viewBox="0 0 24 24" fill="none" xmlns="http://www.w3.org/2000/svg">
<path d="M12 2C6.48 2 2 6.48 2 12C2 17.52 6.48 22 12 22C17.52 22 22 17.52 22 12C22 6.48 17.52 2 12 2ZM8.98 11.75C8.26 11.75 7.73 11.01 7.73 10C7.73 8.99 8.26 8.25 8.98 8.25C9.7 8.25 10.23 8.99 10.23 10C10.23 11.01 9.7 11.75 8.98 11.75ZM14.98 11.75C14.26 11.75 13.73 11.01 13.73 10C13.73 8.99 14.26 8.25 14.98 8.25C15.7 8.25 16.23 8.99 16.23 10C16.23 11.01 15.7 11.75 14.98 11.75Z" fill="currentColor"/>
</svg>
